X:1
T:Vivaldi: Andante From Concerto for 2 Mandolins (RV532)
T:Vivaldi: Andante From Concerto for 2 Mandolins (RV532)
T:Vivaldi
%%score 1 2 3 4
L:1/8
Q:1/4=50
M:4/4
K:G
V:1 treble nm="Mandolin" snm="Mdn."
V:2 treble nm="Mandolin" snm="Mdn."
V:3 treble nm="Violin" snm="Vln."
V:4 alto nm="Viola" snm="Vla."
V:1
"^Slow" (3g/b/a/ (3g/f/e/ ee (3f/c'/b/ (3a/g/f/ ff | ge z2 z4 | %2
 (3g/b/a/ (3g/f/e/ (3g/b/a/ (3g/f/e/ c'c'c'c' | (3f/a/g/ (3f/e/d/ (3f/a/g/ (3f/e/d/ bbbb | %4
 (3e/g/e/ (3f/d/c/ (3e/g/f/ (3e/d/c/ (3a/a/b/ (3c'/b/a/ (3z/ a/b/ (3c'/b/a/ | %5
 (3z/ g/a/ (3b/a/g/ (3z/ g/a/ (3b/a/g/ (3a/c'/b/ (3a/c'/b/ (3a/c'/b/ (3a/c'/a/ | %6
 b/b/a/g/ PTa2 g4 :: ^g/>g/a/>b/ e/>g/a/>b/ c'a z/ a/b/c'/ | %8
 f/>f/g/>a/ ^d/>f/g/>a/ bg (3z/ e/f/ (3g/a/b/ | %9
 e2 (3z/ e/f/ (3g/a/b/ (3c'/b/c'/ (3a/g/a/ (3f/d/e/ (3f/g/a/ | %10
 (3b/a/b/ (3g/f/g/ (3e/c/d/ (3e/f/g/ (3a/g/a/ (3f/e/f/ (3^d/B/^c/ (3d/e/f/ | %11
 (3g/g/b/ (3g/g/b/ (3g/g/b/ (3g/g/e/ (3f/f/b/ (3f/f/b/ (3f/f/b/ (3f/f/b/ | %12
 g/b/a/g<PTfe/ (3e/e/f/ (3g/a/b/ e2 | (3z/ e/f/ (3g/a/b/ c'2 (3z/ a/b/ (3c'/b/a/ PTa2 | %14
 (3z/ a/f/ (3^d/f/d/ PTB2 (3z/ E/F/ (3G/F/E/ B,2 | z/ b/b/b/ b/b/b/b/ ba/g/ PTf2 | %16
 (3e/g/a/ (3b/g/a/ (3b/g/a/ (3b/g/a/ (3b/g/a/ (3b/g/a/ (3b/g/a/ (3b/g/a/ | %17
 b/b/a/g<PTfe/ !fermata!e4 :| %18
V:2
 z8 | (3g/b/a/ (3g/f/e/ ee (3f/c'/b/ (3a/g/f/ ff | ge z2 (3c/e/d/ (3c/B/A/ (3c/e/d/ (3c/B/A/ | %3
 ffff (3B/d/c/ (3B/A/G/ (3B/d/c/ (3B/A/G/ | eeee (3f/f/g/ (3a/g/f/ (3z/ f/g/ (3a/g/f/ | %5
 (3z/ B/c/ (3d/c/B/ (3z/ B/c/ (3d/c/B/ (3f/a/g/ (3f/a/g/ (3f/a/g/ (3f/a/f/ | g/g/f/b/ PTf2 g4 :: %7
 e/>e/f/>^g/ B/>e/f/>g/ ec z e | a/>a/b/>c'/ f/>^d/e/>f/ ge z2 | (3z/ e/f/ (3g/a/b/ e2 z4 | z8 | %11
 (3e/e/g/ (3e/e/g/ (3e/e/g/ (3e/e/g/ (3^d/d/f/ (3d/d/f/ (3d/d/f/ (3d/d/f/ | %12
 e/g/f/e<PT^de/ e2 (3z/ e/f/ (3g/a/b/ | e2 (3z/ e/f/ (3g/a/b/ c'2 (3z/ a/b/ (3c'/b/a/ | %14
 PTa2 (3z/ a/f/ (3^d/f/d/ PTB2 (3z/ E/F/ (3G/F/E/ | B,/g/g/g/ g/g/g/g/ gf/e/ PT^d2 | %16
 (3e/e/f/ (3g/e/f/ (3g/e/f/ (3g/e/f/ (3g/e/f/ (3g/e/f/ (3g/e/f/ (3g/e/f/ | %17
 g/g/f/e<PT^de/ !fermata!e4 :| %18
V:3
"^pizz" EEEE ^DDDB, | EEEE ^DDDB, | EEEE AAAA | DDDD GGGG | CCCC DDDD | DDDD DDDD | GGDD G,4 :: %7
 EEEE AAAA | BB,B,B, EEEE | EEEE AAdd | GGcc FFBB | EEEE BB,B,B, | EEBB, EEEE | EEAA AAAA | %14
 ^DB,B,B, EEEE | EEEE EEBB, | EEEE EEEE | EABB, !fermata!E4 :| %18
V:4
"^pizz" EEEE ^DDDB, | EEEE ^DDDB, | EEEE AAAA | DDDD GGGG | CCCC DDDD | DDDD DDDD | GGDD G,4 :: %7
 EEEE AAAA | BB,B,B, EEEE | EEEE AAdd | GGcc FFBB | EEEE BB,B,B, | EEBB, EEEE | EEAA AAAA | %14
 ^DB,B,B, EEEE | EEEE EEBB, | EEEE EEEE | EABB, !fermata!E4 :| %18

